img/ok.svg

<svg width="60" height="60" viewBox="0 0 60 60" fill="none" xmlns="http://www.w3.org/2000/svg">
<path d="M0 30C0 13.4315 13.4315 0 30 0C46.5685 0 60 13.4315 60 30C60 46.5685 46.5685 60 30 60C13.4315 60 0 46.5685 0 30Z" fill="#F68634"/>
<path d="M33.3003 22.7422C33.3003 20.9746 31.8108 19.5371 29.9795 19.5371C28.1499 19.5371 26.659 20.9746 26.659 22.7422C26.659 24.5083 28.1499 25.9463 29.9795 25.9463C31.8108 25.9463 33.3003 24.5083 33.3003 22.7422ZM37.9995 22.7422C37.9995 27.0098 34.4036 30.4814 29.9798 30.4814C25.5567 30.4814 21.9597 27.0098 21.9597 22.7422C21.9597 18.4727 25.5567 15 29.9798 15C34.4036 15 37.9995 18.4727 37.9995 22.7422ZM37.9021 34.939C36.4519 35.8179 34.8775 36.4414 33.2449 36.8003L37.7283 41.1289C38.6467 42.0132 38.6467 43.4502 37.7283 44.3359C36.8108 45.2217 35.3238 45.2217 34.4072 44.3359L29.9993 40.0825L25.595 44.3359C25.1358 44.7783 24.534 44.9995 23.9324 44.9995C23.3316 44.9995 22.7307 44.7783 22.2715 44.3359C21.354 43.4502 21.354 42.0142 22.2705 41.1289L26.7544 36.8003C25.1218 36.4414 23.5474 35.8169 22.0974 34.939C21 34.271 20.6702 32.8716 21.3616 31.8115C22.0513 30.7495 23.5015 30.4302 24.6008 31.0981C27.884 33.0918 32.1135 33.0923 35.3987 31.0981C36.4981 30.4302 37.9475 30.7495 38.6387 31.8115C39.3301 32.8706 38.9995 34.271 37.9021 34.939Z" fill="white"/>
</svg>

<svg width="60" height="60" fill="none" xmlns="http://www.w3.org/2000/svg"><path d="M0 30C0 13.431 13.431 0 30 0c16.569 0 30 13.431 30 30 0 16.569-13.431 30-30 30C13.431 60 0 46.569 0 30z" fill="#F68634"/><path d="M33.3 22.742c0-1.767-1.49-3.205-3.32-3.205-1.83 0-3.321 1.438-3.321 3.205 0 1.766 1.49 3.204 3.32 3.204 1.832 0 3.321-1.438 3.321-3.204zm4.7 0c0 4.268-3.596 7.74-8.02 7.74-4.423 0-8.02-3.472-8.02-7.74 0-4.27 3.597-7.742 8.02-7.742 4.424 0 8.02 3.473 8.02 7.742zm-.098 12.197a15.332 15.332 0 01-4.657 1.861l4.483 4.329a2.21 2.21 0 010 3.207 2.407 2.407 0 01-3.32 0l-4.409-4.253-4.404 4.253a2.39 2.39 0 01-1.663.663c-.6 0-1.201-.22-1.66-.663a2.213 2.213 0 01-.002-3.207l4.484-4.329a15.355 15.355 0 01-4.657-1.861c-1.097-.668-1.427-2.067-.735-3.128.69-1.061 2.14-1.38 3.239-.713 3.283 1.994 7.513 1.994 10.798 0 1.1-.668 2.548-.348 3.24.713.691 1.06.36 2.46-.737 3.128z" fill="#fff"/></svg>
